X:90
T:Merry Jack
M:C|
L:1/8
B:Thompson's Compleat Collection of 200 Favourite Country Dances, vol. 1 (London, 1757)
Z:Transcribed and edited by Fynnian Titford-Mock, 2007
Z:abc's:AK/Fiddler's Companion
K:D
A/G/|FAdf ecBA|afed cecA|f2 ed cafa|ce E^G A3:|
|:e|ecBA fgaf|gfed cBAG|FAdf GBeg|fe/d/ Ac d2:|

